src/main/resources/icons/RubyIcons/icons/ruby/nodes/not_defined.svg

<svg xmlns="http://www.w3.org/2000/svg" width="16" height="16" viewBox="0 0 16 16">
  <g fill="none" fill-rule="evenodd">
    <path fill="#40B6E0" fill-opacity=".6" d="M6,11.5 C6,8.463 8.463,6 11.5,6 C12.809,6 14.01,6.459 14.955,7.223 C14.567,3.723 11.604,1 8,1 C4.134,1 1,4.134 1,8 C1,11.604 3.723,14.567 7.223,14.955 C6.459,14.01 6,12.809 6,11.5"/>
    <path fill="#9AA7B0" fill-opacity=".8" d="M16,11.5 C16,13.985 13.985,16 11.5,16 C9.015,16 7,13.985 7,11.5 C7,9.015 9.015,7 11.5,7 C13.985,7 16,9.015 16,11.5"/>
    <path fill="#231F20" fill-opacity=".7" d="M11,15 L12.1666667,15 L12.1666667,13.8947368 L11,13.8947368 L11,15 Z M11.5833333,8 C10.2941667,8 9.25,8.69726316 9.25,10 L10.4166667,10 C10.4166667,9.35157895 10.9416667,9 11.5833333,9 C12.225,9 12.75,9.35157895 12.75,10 C12.75,11.1789474 11,11.3894737 11,13.3052632 L12.1666667,13.3052632 C12.1666667,11.9789474 13.9166667,11.4736842 13.9166667,10 C13.9166667,8.69726316 12.8725,8 11.5833333,8 Z"/>
  </g>
</svg>

<svg xmlns="http://www.w3.org/2000/svg" width="16" height="16" viewBox="0 0 16 16"><rect id="frame" width="16" height="16" fill="none"/><g fill="none" fill-rule="evenodd"><path fill="#40B6E0" fill-opacity=".6" d="M6 11.5a5.5 5.5 0 0 1 8.955-4.277 7 7 0 1 0-7.732 7.732A5.476 5.476 0 0 1 6 11.5"/><path fill="#9AA7B0" fill-opacity=".8" d="M16 11.5a4.5 4.5 0 1 1-9 0 4.5 4.5 0 0 1 9 0"/><path fill="#231F20" fill-opacity=".7" d="M11 15h1.167v-1.105H11V15zm.583-7c-1.289 0-2.333.697-2.333 2h1.167c0-.648.525-1 1.166-1 .642 0 1.167.352 1.167 1 0 1.179-1.75 1.39-1.75 3.305h1.167c0-1.326 1.75-1.831 1.75-3.305 0-1.303-1.044-2-2.334-2z"/></g></svg>
